icons/black/imepay.svg

<?xml version="1.0" encoding="UTF-8"?><svg id="a" xmlns="http://www.w3.org/2000/svg" viewBox="0 0 48 48"><defs><style>.c{fill:none;stroke:#000;stroke-linecap:round;stroke-linejoin:round;}</style></defs><path class="c" d="M38.5,5.5H9.5c-2.2091,0-4,1.7909-4,4v29c0,2.2091,1.7909,4,4,4h29c2.2091,0,4-1.7909,4-4V9.5c0-2.2091-1.7909-4-4-4Z"/><path class="c" d="M21.3663,20.2391l2.9604,2.8547c.2496.2431.6618.1833.832-.1207l7.0898-12.667-16.0854,3.694c-.4088.0939-.5516.6031-.2511.8958l3.9642,3.874,7.6772-5.1071-7.6772,5.1071,1.4902,1.4692-2.3643,1.9305c-.2712.2214-.6778.0285-.6778-.3216v-4.5726"/><path class="c" d="M34.7528,31.7743v3.7125c0,1.5188-1.2312,2.75-2.75,2.75h0c-.7594,0-1.4468-.3078-1.9445-.8054"/><path class="c" d="M34.7528,27.2368v4.5375c0,1.5188-1.2312,2.75-2.75,2.75h0c-1.5188,0-2.75-1.2312-2.75-2.75v-4.5375"/><path class="c" d="M26.75,31.7743c0,1.5188-1.2312,2.75-2.75,2.75h0c-1.5188,0-2.75-1.2312-2.75-2.75v-1.7875c0-1.5188,1.2312-2.75,2.75-2.75h0c1.5188,0,2.75,1.2312,2.75,2.75"/><line class="c" x1="26.75" y1="34.5243" x2="26.75" y2="27.2368"/><path class="c" d="M13.2472,31.7743c0,1.5188,1.2312,2.75,2.75,2.75h0c1.5188,0,2.75-1.2312,2.75-2.75v-1.7875c0-1.5188-1.2312-2.75-2.75-2.75h0c-1.5188,0-2.75,1.2312-2.75,2.75"/><line class="c" x1="13.2472" y1="27.2368" x2="13.2472" y2="38.2368"/></svg>

<svg xmlns="http://www.w3.org/2000/svg" viewBox="0 0 48 48"><defs><style>.a{fill:none;stroke:#000;stroke-linecap:round;stroke-linejoin:round;}</style></defs><path class="a" d="M40.5,5.5H7.5a2,2,0,0,0-2,2v33a2,2,0,0,0,2,2h33a2,2,0,0,0,2-2V7.5A2,2,0,0,0,40.5,5.5Z"/><path class="a" d="M21.37,20.24l3,2.85a.52.52,0,0,0,.83-.12l7.09-12.66L16.16,14a.53.53,0,0,0-.25.9l4,3.87,7.67-5.11-7.67,5.11,1.49,1.47L19,22.17a.42.42,0,0,1-.68-.32V17.28"/><path class="a" d="M34.75,31.77v3.72A2.75,2.75,0,0,1,32,38.24h0a2.73,2.73,0,0,1-1.94-.81"/><path class="a" d="M34.75,27.24v4.53A2.75,2.75,0,0,1,32,34.52h0a2.75,2.75,0,0,1-2.75-2.75V27.24"/><path class="a" d="M26.75,31.77A2.75,2.75,0,0,1,24,34.52h0a2.75,2.75,0,0,1-2.75-2.75V30A2.75,2.75,0,0,1,24,27.24h0A2.75,2.75,0,0,1,26.75,30"/><line class="a" x1="26.75" y1="34.52" x2="26.75" y2="27.24"/><path class="a" d="M13.25,31.77A2.75,2.75,0,0,0,16,34.52h0a2.75,2.75,0,0,0,2.75-2.75V30A2.75,2.75,0,0,0,16,27.24h0A2.75,2.75,0,0,0,13.25,30"/><line class="a" x1="13.25" y1="27.24" x2="13.25" y2="38.24"/></svg>
